icons/Folder.svg

<svg width="24" height="24" viewBox="0 0 24 24" fill="none" xmlns="http://www.w3.org/2000/svg">
<path fill-rule="evenodd" clip-rule="evenodd" d="M5,4.75c-0.69036,0 -1.25,0.55964 -1.25,1.25v11.25c0,0.6904 0.55964,1.25 1.25,1.25h14c0.6904,0 1.25,-0.5596 1.25,-1.25v-8.25c0,-0.69036 -0.5596,-1.25 -1.25,-1.25h-6.1716c-0.7293,0 -1.4288,-0.28973 -1.9445,-0.80546l-1.82844,-1.82842c-0.23442,-0.23442 -0.55237,-0.36612 -0.88389,-0.36612zM2.25,6c0,-1.51878 1.23122,-2.75 2.75,-2.75h3.17157c0.72935,0 1.42882,0.28973 1.94453,0.80546l1.8284,1.82842c0.2345,0.23442 0.5524,0.36612 0.8839,0.36612h6.1716c1.5188,0 2.75,1.23122 2.75,2.75v8.25c0,1.5188 -1.2312,2.75 -2.75,2.75h-14c-1.51878,0 -2.75,-1.2312 -2.75,-2.75z" fill="#002B51"/>
</svg>

<svg width="24" height="24" viewBox="0 0 24 24" fill="none" xmlns="http://www.w3.org/2000/svg">
<path fill-rule="evenodd" clip-rule="evenodd" d="M5 4.75C4.30964 4.75 3.75 5.30964 3.75 6V17.25C3.75 17.9404 4.30964 18.5 5 18.5H19C19.6904 18.5 20.25 17.9404 20.25 17.25V9C20.25 8.30964 19.6904 7.75 19 7.75H12.8284C12.0991 7.75 11.3996 7.46027 10.8839 6.94454L9.05546 5.11612C8.82104 4.8817 8.50309 4.75 8.17157 4.75H5ZM2.25 6C2.25 4.48122 3.48122 3.25 5 3.25H8.17157C8.90092 3.25 9.60039 3.53973 10.1161 4.05546L11.9445 5.88388C12.179 6.1183 12.4969 6.25 12.8284 6.25H19C20.5188 6.25 21.75 7.48122 21.75 9V17.25C21.75 18.7688 20.5188 20 19 20H5C3.48122 20 2.25 18.7688 2.25 17.25V6Z" fill="#002B51"/>
</svg>
